!!!COA: Josquin des Prez
!!!CDT: ~1450-1521/08/27
!!!COM: Josquin d'Ascanio
!!!OTL@@FRA: El grillo
!!!AGN: Chanson
!!!SCT: NJE 28.12
!!!SCA: New Josquin Edition 28.12
!!!voices: 4
**kern	**kern	**kern	**kern
*staff4	*staff3	*staff2	*staff1
*Ivox	*Ivox	*Ivox	*Ivox
*I"Bassus	*I"Tenor	*I"Altus	*I"Superius
*I'B	*I'T	*I'A	*I'S
*clefF4	*clefGv2	*clefGv2	*clefG2
*>[A,B,B,C,A]	*>[A,B,B,C,A]	*>[A,B,B,C,A]	*>[A,B,B,C,A]
*>norep[A,B,C,A]	*>norep[A,B,C,A]	*>norep[A,B,C,A]	*>norep[A,B,C,A]
*>A	*>A	*>A	*>A
*k[]	*k[]	*k[]	*k[]
*M2/1	*M2/1	*M2/1	*M2/1
*met(C|)	*met(C|)	*met(C|)	*met(C|)
=1-	=1-	=1-	=1-
0F	0c	0f	0a
=2	=2	=2	=2
1G	1B	0d	1g
1D	2.A/	.	1f
.	4B\	.	.
=3	=3	=3	=3
1C	1c	1G	1e
2r	2r	2r	2r
2GG/	2B\	2d\	2g/
=4	=4	=4	=4
2GG/	2B\	2d\	2g/
2GG/	2B\	2d\	2g/
2D\	2A/	2d\	2f#i/
2D\	2A/	2d\	2f#i/
=5	=5	=5	=5
1GG	1G	1d	1g
2GG/	2G/	2d\	2g/
2GG/	2G/	2d\	2g/
=6	=6	=6	=6
2C/	2G/	2e\	2g/
2C/	2G/	2e\	2g/
2C/	2c\	2e\	2g/
2C/	2c\	2e\	2g/
=7	=7	=7	=7
[0C;l	2.c\	1e	[0g;l
.	4d\	.	.
.	1e	2.c\	.
.	.	4d\	.
=8	=8	=8	=8
0C_	2.c\	1e	0g_
.	4d\	.	.
.	1e	2.c\	.
.	.	4d\	.
=9	=9	=9	=9
0C_	2.c\	1e	0g_
.	4d\	.	.
.	1e	2.c\	.
.	.	4d\	.
=10	=10	=10	=10
0C_	[0cl;	[0el;	0g_
=11	=11	=11	=11
0C]	0c]	0e]	0g]
=12	=12	=12	=12
1r	1r	2f\	2a/
.	.	2f\	2a/
2F\	2c\	1r	1r
2F\	2c\	.	.
=13	=13	=13	=13
1r	1r	2f\	2a/
.	.	2f\	2a/
2F\	2c\	1r	1r
2F\	2c\	.	.
=14	=14	=14	=14
1r	1r	2f\	2a/
.	.	2f\	2a/
2F\	2c\	1r	1r
2F\	2c\	.	.
=15	=15	=15	=15
1r	1r	2f\	2a/
.	.	2f\	2a/
2F\	2c\	1r	1r
2F\	2c\	.	.
=16	=16	=16	=16
4F\	4c\	4f\	4a/
4F\	4c\	4f\	4a/
4F\	4c\	4f\	4a/
4F\	4c\	4f\	4a/
4F\	4c\	4f\	4a/
4F\	4c\	4f\	4a/
4F\	4c\	4f\	4a/
4F\	4c\	4f\	4a/
=17	=17	=17	=17
4F\	4c\	4f\	4a/
4F\	4c\	4f\	4a/
4F\	4c\	4f\	4a/
4F\	4c\	4f\	4a/
2C/	2c\	2e\	2g/
2C/	2c\	2e\	2g/
=18	=18	=18	=18
0F	0c	0f	0a
=19	=19	=19	=19
1G	1B	0d	1g
1D	2.A/	.	1f
.	4B\	.	.
=20	=20	=20	=20
1C	1c	1G	1e
2r	2r	2r	2r
2GG/	2B\	2d\	2g/
=21	=21	=21	=21
2GG/	2B\	2d\	2g/
2GG/	2B\	2d\	2g/
2D\	2A/	2d\	2f#i/
2D\	2A/	2d\	2f#i/
=22	=22	=22	=22
1GG	1G	1d	1g
!LO:TX:X=200:i:t=fine	!	!	!
1GG;	1G;	1d;	1g;
!! doesn't work with muse2ps: LO:TX:rj:i:t=fine	!	!	!
=23!|:	=23!|:	=23!|:	=23!|:
*>B	*>B	*>B	*>B
2C/	2G/	2e\	2g/
2C/	2G/	2e\	2g/
1C	1c	1e	1g
=24	=24	=24	=24
2C/	2c\	2g\	2e/
2C/	2c\	2g\	2e/
2D\	2A/	2d\	2f/
2D\	2A/	2d\	2f/
=25	=25	=25	=25
1GG	1G	1d	1g
1GG	1G	1d	1g
=26	=26	=26	=26
2F\	2c\	2f\	2a/
2F\	2c\	2f\	2a/
2.F\	1c	1f	1a
4E\	.	.	.
=27	=27	=27	=27
2F\	2c\	2f\	2a/
2G\	2B\	2d\	2g/
2D\	2A/	2d\	2g/
2D\	2A/	2d\	2f#i/
=28	=28	=28	=28
1GG	1G	1d	1g
1GG;	1G;	1d;	1g;
=29:|!	=29:|!	=29:|!	=29:|!
*>C	*>C	*>C	*>C
1GG	1G	1d	1g
1D	1A	1d	1f
=30	=30	=30	=30
1GG	1B	1d	1g
1C	1c	1G	1e
=31	=31	=31	=31
1D	2A/	2r	1f
.	1d	2A/	.
1AA	.	1A	1e
.	2c\	.	.
=32	=32	=32	=32
2D\	2d\	2A/	2d/
2D\	2d\	2A/	2d/
2r	2r	2r	2r
2AA/	2c\	2A/	2e/
=33	=33	=33	=33
1D	1d	1A	1f
1AA	1c	1A	1e
=34	=34	=34	=34
2D\	2d\	2A/	2d/
2D\	2d\	2A/	2d/
2r	2r	2r	2r
2AA/	2c\	2A/	2e/
=35	=35	=35	=35
1D	1d	1A	1f
1AA	1c	1A	1e
=36	=36	=36	=36
2D\	2d\	2A/	2.d/
2D\	4c\	2A/	.
.	4B\	.	4e/
2r	2A/	2c\	2f/
2E\	[2G/	2B\	[2e/
=37	=37	=37	=37
2C/	4G/]	2c\	2e/]
.	4F/	.	.
2D\	4E/	2A/	1d
.	4D/	.	.
1AA	1E	1A	.
.	.	.	2c#i/
=38	=38	=38	=38
0Dl	0Dl	0Al	0dl
!LO:TX:rj:i:t=A capite	!	!	!
=||	=||	=||	=||
*-	*-	*-	*-
!!!RDF**kern: V=start of tuplet marker
!!!RDF**kern: Z=end of tuplet marker
!!!RDF**kern: l=long note in original notation
!!!RDF**kern: i=editorial accidental
!!!ENC: Will Watson 17/08/2011
!!!END: 2011/08/17/
!!!EED: Jesse Rodin
!!!EEV: 2011/10/07/
!!attribution-level@Jos: 3 (tricky)
!!!ONB: Translated from MusicXML and edited on 2011/10/07/ by Craig Sapp
!!muse2ps:  C^@{COA}?\n@{SCT}^v90,100,90,150I150Q16
